X:074 
T:Green-Gowned Lass (reel) 
B:CRE3.195 (CailÃÂÃÂÃÂÃÂ­n an GhÃÂÃÂÃÂÃÂºna Uaine)
F:file ID: cre.3/074green_g
R:reel
L:1/8
Q:180
M:C
K:G
d2BG DGBG|AG (3Bcd BEE2|d2BG DGBG|(3Bcd ea agge|
d2BG DGBG|AGBG AGEG|D2BG DGBG|(3Bcd ea aggd||
g2bg ageg|a3b ageg|g2b2 agge|dega bggd|
g2bg ageg|a3b ageg|g2be aege|dega bgge||

%%%

